dist/img/icons/ico-linkedin.svg

<svg viewBox="0 0 16.151 16.148" xmlns="http://www.w3.org/2000/svg"><path d="m3.615 16.148h-3.348v-10.781h3.348zm-1.676-12.248a1.948 1.948 0 1 1 1.939-1.961 1.954 1.954 0 0 1 -1.939 1.961zm14.209 12.248h-3.342v-5.248c0-1.251-.025-2.855-1.741-2.855-1.741 0-2.007 1.359-2.007 2.764v5.339h-3.345v-10.781h3.211v1.47h.047a3.518 3.518 0 0 1 3.168-1.737c3.389 0 4.012 2.231 4.012 5.129v5.922z" fill="#fff"/></svg>

<svg xmlns="http://www.w3.org/2000/svg" viewBox="0 0 16.151 16.148"><title>ico-linkedin</title><g id="Capa_2" data-name="Capa 2"><g id="Capa_1-2" data-name="Capa 1"><path d="M3.615,16.148H.267V5.367H3.615ZM1.939,3.9A1.948,1.948,0,1,1,3.878,1.939,1.954,1.954,0,0,1,1.939,3.9ZM16.148,16.148H12.806V10.9c0-1.251-.025-2.855-1.741-2.855-1.741,0-2.007,1.359-2.007,2.764v5.339H5.713V5.367H8.924v1.47h.047A3.518,3.518,0,0,1,12.139,5.1c3.389,0,4.012,2.231,4.012,5.129v5.922Z" style="fill:#fff"/></g></g></svg>
